src/lib/packages/icons/src/assets/filled/chat-lock.svg

<svg width="24" height="24" viewBox="0 0 24 24" fill="none" xmlns="http://www.w3.org/2000/svg">
<path d="M12.001 3C7.031 3 3.00197 7.02902 3.00197 11.999C3.00197 13.339 3.30205 14.619 3.83205 15.758C4.04205 16.198 4.04211 16.708 3.89211 17.178L3.05202 19.678C2.79202 20.458 3.54204 21.208 4.32204 20.948L6.82204 20.108C7.29204 19.958 7.80196 19.958 8.24196 20.168C9.38196 20.698 10.662 20.998 12.002 20.998C16.972 20.998 21.001 16.969 21.001 11.999C21 7.02902 16.971 3 12.001 3ZM15.5 14.875C15.5 15.875 15 16.375 14 16.375H10C9.00002 16.375 8.50002 15.875 8.50002 14.875V12.625C8.50002 11.815 8.84502 11.351 9.50002 11.196V9.75C9.50002 8.372 10.621 7.25 12 7.25C13.379 7.25 14.5 8.372 14.5 9.75V11.196C15.155 11.35 15.5 11.815 15.5 12.625V14.875ZM13 9.75V11.125H11V9.75C11 9.198 11.448 8.75 12 8.75C12.552 8.75 13 9.198 13 9.75Z" fill="currentColor"/>
</svg>

<svg xmlns="http://www.w3.org/2000/svg" width="24" height="24" fill="none"><path fill="currentColor" d="M12.001 3a9 9 0 0 0-8.999 8.999c0 1.34.3 2.62.83 3.759.21.44.21.95.06 1.42l-.84 2.5c-.26.78.49 1.53 1.27 1.27l2.5-.84c.47-.15.98-.15 1.42.06 1.14.53 2.42.83 3.76.83A8.999 8.999 0 1 0 12.001 3ZM15.5 14.875c0 1-.5 1.5-1.5 1.5h-4c-1 0-1.5-.5-1.5-1.5v-2.25c0-.81.345-1.274 1-1.429V9.75c0-1.378 1.121-2.5 2.5-2.5s2.5 1.122 2.5 2.5v1.446c.655.154 1 .619 1 1.429v2.25ZM13 9.75v1.375h-2V9.75a1 1 0 0 1 2 0Z"/></svg>
